X:027
T: Curra Koun Dilish
N: O'Farrell's Pocket Companion v.1 (Sky ed. p.28)
% There's a discussion of this dog-Irish title in O'Neill's "Irish Folk Music" (page 190-191).
% "Friend of [with] the Dear Head"? "Brown Headed Dearie"? Take your choice!
M: 3/4
R: waltz
L: 1/4
Q: 100
K: Dm
A/ | A2 ^c|d2 e|f g/f/e/d/|e2 d|c A e|f e d|
c A d | D2 E | F>G A/B/|c A G/F/| G A d| f2 e/d/|c A G/F/|
G>B A/G/|F D D| D2z/ :|d//e//|f2g |a2g|a g f| e d c| f e d|
g f e| a g f| e d c|a b/a/g/f/| g a/g/f/e/|f g/f/e/d/|
e d c|a b/a/g/f/| g a/g/f/e/|f g/f/e/d/|e f/e/d/^c/|d D D|
D2E |F>G A|A c B|c G E|c G E|F>G A|A d c|
d D D|d2E |F G A|A G A|D2E| F/E/F/G/A/B/|c A G/F/|
G A e/g/|f2 e/d/|c A G/F/| G>B A/ G/|F D D|D2 ||
